casedrop/img/header/icons/attention-icon.svg

<svg width="20" height="20" viewBox="0 0 20 20" fill="none" xmlns="http://www.w3.org/2000/svg">
<path d="M19.7337 15.9743L11.7009 2.06119C11.3459 1.4463 10.71 1.0791 9.99996 1.0791C9.28988 1.0791 8.65401 1.44622 8.29901 2.06119L0.266312 15.9743C-0.0887708 16.5892 -0.0887708 17.3234 0.266312 17.9384C0.621395 18.5534 1.25718 18.9205 1.96726 18.9205H18.0329C18.7429 18.9205 19.3788 18.5534 19.7338 17.9385C20.0888 17.3235 20.0887 16.5893 19.7337 15.9743ZM10 16.657C9.29508 16.657 8.72156 16.0835 8.72156 15.3785C8.72156 14.6736 9.29508 14.1001 10 14.1001C10.705 14.1001 11.2785 14.6736 11.2785 15.3785C11.2784 16.0836 10.7049 16.657 10 16.657ZM11.2871 11.1921C11.2871 11.9017 10.7097 12.4791 10 12.4791C9.29036 12.4791 8.71295 11.9017 8.71295 11.1921V5.28482C8.71295 4.94811 8.98592 4.67513 9.32264 4.67513H10.6775C11.0143 4.67513 11.2872 4.94811 11.2872 5.28482V11.1921H11.2871Z" fill="#4C5269"/>
</svg>

<svg width="20" height="20" fill="none" xmlns="http://www.w3.org/2000/svg"><path d="M19.734 15.974L11.7 2.061A1.944 1.944 0 0010 1.08c-.71 0-1.346.367-1.701.982L.266 15.974a1.944 1.944 0 000 1.964c.355.615.991.983 1.701.983h16.066c.71 0 1.346-.368 1.7-.982a1.944 1.944 0 000-1.965zM10 16.657a1.28 1.28 0 01-1.278-1.278A1.28 1.28 0 0110 14.1a1.28 1.28 0 011.278 1.279A1.28 1.28 0 0110 16.657zm1.287-5.465a1.288 1.288 0 01-2.574 0V5.285a.61.61 0 01.61-.61h1.354a.61.61 0 01.61.61v5.907z" fill="#4C5269"/></svg>
